X:171
T:Úgy akartalak szeretni, ne tudják
O: Gyimesközéplok - központ, (1957)
Q: "Tempo guisto" 1/4=104
M:4/4
L:1/4
K:F
g/g/d/d/ d/d/B/B/ | d<d f z | 
g/g/d/d/ d/d/B/B/ | dcB z | 
df_ed | c/d/c/B/ | GFB z | 
c/d/_e/d/ c/c/B/B/ | G<G G z | 

